X:351
T:
R:polska
S:Efter K. Odin, Kaupe i Fröjel.
O:Gotland, Fröjel
M:3/4
L:1/16
K:Dm
A=B^cd D2d2D2d2|ed^cd A,2e2A,2e2|{g} f2ef g2f2e2d2|{e} d2^cd e2a2 A4|
Ad^cd D2d2D2d2|ed^ce A,2e2A,2e2|fefg a2f2e2d2|fed^c d4 D4::a4 F2a2F2a2|a2g2 E2g2E2g2|
g2f2 D2f2 f2ed|d2^c2 A,2^c2 A,2a2|a4 F2a2F2a2|a2g2 E2g2E2g2|gfef d2ag gfed|
^cde^c d4 D4:|

